source/img/svg/logo-text.svg

<svg width="118" height="21" viewBox="0 0 118 21" fill="none" xmlns="http://www.w3.org/2000/svg">
<path d="M1.42351 19.2159C0.391283 17.7277 -0.102273 15.9474 0.0207226 14.156V6.84405C-0.109487 5.03944 0.376607 3.24353 1.40346 1.73542C2.33197 0.572011 3.91845 -0.00644536 6.16291 5.41628e-05C8.40736 0.00655368 9.92704 0.516766 10.722 1.53069C11.6912 2.78717 12.1642 4.3407 12.0546 5.90812V7.62399H7.90636V5.76188C7.90077 5.27192 7.85723 4.78307 7.77611 4.29949C7.72595 3.9494 7.56075 3.6245 7.30517 3.3733C7.1474 3.24166 6.96423 3.14195 6.76637 3.08001C6.56852 3.01807 6.35995 2.99515 6.15288 3.01258C5.8555 2.9694 5.55167 3.01643 5.28273 3.14726C5.0138 3.2781 4.79283 3.48638 4.6499 3.74378C4.38644 4.42844 4.27049 5.15851 4.30923 5.88862V15.1699C4.26352 15.9049 4.39743 16.6399 4.7 17.3148C4.84457 17.5582 5.05909 17.7553 5.31721 17.8817C5.57533 18.0082 5.86578 18.0585 6.15288 18.0265C6.435 18.0653 6.72251 18.0164 6.97441 17.8869C7.22631 17.7573 7.42973 17.5537 7.55567 17.305C7.79804 16.6191 7.90347 15.8944 7.86628 15.1699V13.2201H12.0145V14.9067C12.1366 16.4972 11.7023 18.0812 10.7821 19.4011C9.90032 20.4735 8.3773 21 6.21301 21C4.04871 21 2.35536 20.415 1.42351 19.2159Z" fill="#111111"/>
<path d="M17.7065 0.282784H22.4559L26.4638 20.7563H22.516L21.8046 16.2326H18.478L17.6764 20.727H13.6685L17.7065 0.282784ZM21.3637 13.6588L20.1012 5.4304L18.8487 13.6588H21.3637Z" fill="#111111"/>
<path d="M29.5405 3.36356H26.2941V0.282784H37.0354V3.36356H33.829V20.727H29.5305L29.5405 3.36356Z" fill="#111111"/>
<path d="M45.4631 0.282784H53.6093V2.40813H48.399V9.16438H52.6273V11.1825H48.399V18.6797H53.6594V20.727H45.4631V0.282784Z" fill="#444444"/>
<path d="M56.0247 0.282784H58.0286L64.0406 13.8635V0.282784H66.4854V20.7563H64.6117L58.5998 6.7953V20.727H56.1148L56.0247 0.282784Z" fill="#444444"/>
<path d="M69.7224 0.282784H77.8585V2.40813H72.6482V9.16438H76.9167V11.1825H72.6883V18.6797H77.9187V20.727H69.7224V0.282784Z" fill="#444444"/>
<path d="M80.2739 0.282779H84.5023C86.1687 0.152311 87.8281 0.605237 89.1816 1.55993C90.1836 2.40812 90.6745 3.79252 90.6745 5.71313C90.6745 8.31293 89.8095 9.90207 88.0794 10.4805L91.0854 20.727H88.2397L85.4843 11.1337H83.2097V20.727H80.2739V0.282779ZM84.2819 9.05713C85.2472 9.148 86.2124 8.88364 86.9872 8.31618C87.3021 7.95359 87.5375 7.53216 87.6788 7.0778C87.8201 6.62344 87.8643 6.14576 87.8089 5.67413C87.829 5.0127 87.7307 4.3529 87.5183 3.72427C87.4321 3.49248 87.2991 3.27987 87.127 3.09901C86.9549 2.91815 86.7472 2.77273 86.5163 2.67135C85.8658 2.41169 85.1644 2.29517 84.4622 2.33013H83.1697V9.09613L84.2819 9.05713Z" fill="#444444"/>
<path d="M94.623 19.2159C93.6653 17.643 93.2215 15.8239 93.3505 14V7.17552C93.316 5.85855 93.4848 4.54399 93.8515 3.27581C94.1409 2.32238 94.7559 1.49354 95.595 0.926233C96.6079 0.332253 97.7805 0.0470228 98.9616 0.107293C99.7256 0.0365995 100.496 0.129098 101.22 0.378323C101.943 0.627548 102.602 1.02749 103.15 1.55019C104.111 2.86053 104.566 4.45937 104.432 6.0641V6.82455H101.677V6.19084C101.696 5.4329 101.635 4.67506 101.497 3.92901C101.405 3.45088 101.134 3.02319 100.735 2.72985C100.215 2.43117 99.6144 2.29188 99.0117 2.33013C98.3572 2.27565 97.7067 2.47149 97.1981 2.87609C96.7826 3.25974 96.511 3.76769 96.4266 4.31898C96.2997 5.12206 96.2427 5.93414 96.2563 6.74655V14.3412C96.1767 15.4953 96.3793 16.6513 96.8474 17.7145C97.1193 18.0415 97.4644 18.3036 97.8564 18.4809C98.2484 18.6582 98.6768 18.746 99.109 18.7375C99.5411 18.7291 99.9656 18.6246 100.35 18.4321C100.734 18.2396 101.068 17.9641 101.326 17.6267C101.809 16.5023 102.018 15.2844 101.938 14.0683V12.6254H99.2722V10.6073H104.583V20.727H102.769L102.479 18.3774C102.249 19.158 101.755 19.8401 101.076 20.3127C100.398 20.7853 99.5747 21.0207 98.7412 20.9805C97.9576 21.0477 97.1692 20.9212 96.4492 20.6127C95.7293 20.3042 95.1011 19.8237 94.623 19.2159Z" fill="#444444"/>
<path d="M110.675 13.5126L106.136 0.282784H108.862L112.078 10.1491L115.245 0.282784H118L113.491 13.5126V20.727H110.685L110.675 13.5126Z" fill="#444444"/>
</svg>

<svg xmlns="http://www.w3.org/2000/svg" width="118" height="21" fill="none" viewBox="0 0 118 21"><path fill="#111" d="M1.424 19.216a7.92 7.92 0 0 1-1.403-5.06V6.844a8.041 8.041 0 0 1 1.382-5.109C2.332.572 3.918-.006 6.163 0c2.244.007 3.764.517 4.559 1.53a6.428 6.428 0 0 1 1.333 4.378v1.716H7.906V5.762a9.494 9.494 0 0 0-.13-1.463 1.622 1.622 0 0 0-.47-.926 1.576 1.576 0 0 0-1.153-.36 1.499 1.499 0 0 0-.87.134c-.27.131-.49.34-.633.597a5.202 5.202 0 0 0-.34 2.145v9.28a4.55 4.55 0 0 0 .39 2.146c.145.243.36.44.617.567.258.126.549.176.836.144.282.04.57-.01.821-.14.252-.129.456-.332.582-.581.242-.686.347-1.41.31-2.135v-1.95h4.149v1.687a6.925 6.925 0 0 1-1.233 4.494C9.9 20.474 8.377 21 6.213 21s-3.858-.585-4.79-1.784ZM17.706.283h4.75l4.008 20.473h-3.948l-.711-4.523h-3.327l-.802 4.494H13.67L17.706.283Zm3.658 13.376L20.1 5.43 18.85 13.66h2.515ZM29.54 3.364h-3.246V.283h10.741v3.08H33.83v17.364H29.53l.01-17.363Z"/><path fill="#444" d="M45.463.283h8.146v2.125H48.4v6.756h4.228v2.018H48.4v7.498h5.26v2.047h-8.196V.283ZM56.025.283h2.004l6.012 13.58V.284h2.444v20.473h-1.873L58.6 6.796v13.931h-2.485L56.025.283ZM69.722.283h8.137v2.125h-5.21v6.756h4.268v2.018h-4.229v7.498h5.23v2.047h-8.196V.283ZM80.274.283h4.228a7.156 7.156 0 0 1 4.68 1.277c1.002.848 1.492 2.233 1.492 4.153 0 2.6-.865 4.19-2.595 4.767l3.006 10.247H88.24l-2.756-9.593H83.21v9.593h-2.936V.283Zm4.008 8.774c.965.091 1.93-.173 2.705-.74.315-.363.55-.785.692-1.24.141-.454.185-.931.13-1.403a5.561 5.561 0 0 0-.29-1.95 1.835 1.835 0 0 0-.392-.625 1.893 1.893 0 0 0-.61-.428 4.888 4.888 0 0 0-2.055-.34H83.17v6.765l1.112-.039ZM94.623 19.216A8.825 8.825 0 0 1 93.35 14V7.176a12.826 12.826 0 0 1 .502-3.9 4.375 4.375 0 0 1 1.743-2.35 6.05 6.05 0 0 1 3.367-.819 5.41 5.41 0 0 1 2.258.271c.723.25 1.382.65 1.93 1.172a6.686 6.686 0 0 1 1.282 4.514v.76h-2.755v-.633a10.929 10.929 0 0 0-.18-2.262 1.946 1.946 0 0 0-.762-1.2 3.072 3.072 0 0 0-1.723-.399 2.573 2.573 0 0 0-1.814.546 2.475 2.475 0 0 0-.771 1.443 14.046 14.046 0 0 0-.17 2.428v7.594a7.146 7.146 0 0 0 .59 3.374c.272.326.617.589 1.01.766a2.902 2.902 0 0 0 2.493-.049c.384-.192.718-.468.976-.805a7.725 7.725 0 0 0 .612-3.559v-1.443h-2.666v-2.018h5.311v10.12h-1.814l-.29-2.35a3.601 3.601 0 0 1-1.403 1.936 3.77 3.77 0 0 1-2.335.668 4.785 4.785 0 0 1-2.292-.368 4.653 4.653 0 0 1-1.826-1.397ZM110.675 13.513 106.136.283h2.726l3.216 9.866 3.167-9.866H118l-4.509 13.23v7.214h-2.806l-.01-7.214Z"/></svg>
